X:1
T:Sponse voca Christum
T:Daniel Friderici
T:Source : Bicinia sacra---Rostock---J.Richelius---1642. Editor : André Vierendeels (02/07/17).
T:Notes  : Original clefs : G2, G2 m 45 in S 2 : third higher notated in original print.
T:Sponse voca Christum
T:©
T:©
T:©
C:Daniel Friderici
Z:©
%%score [ 1 2 ]
L:1/8
Q:1/4=120
M:2/2
K:F
V:1 treble nm="Soprano 1" snm="S 1"
V:2 treble nm="Soprano 2" snm="S 2"
V:1
 c4 A4 | z8 | c6 c2 | d2 e2 f4 | e2 g4 e2 | f2 e2 d4 | c6 g2- | g2 e2 g4 | e4 e2 e2 | f2 g2 a4 | %10
w: Spon- se,||spon- se|vo- ca Chri-|stum, spon- se|vo- ca Chri-|stum, spon-|* se, spon-|se, spon- se|vo- ca Chri-|
 g4 z2 c2 | g4 z2 e2 | f4 z2 d2 | e2 f2 e2 e2 | f2 g2 a2 e2 | f2 g2 a2 e2 | f4 z2 a2 | g4 g2 g2 | %18
w: stum, non|est, non|est, non|est, non est, non|est, non est, non|est, non est, non|est, non|est si- ne|
 f3 f e2 d2- | cc c3 =B/A/ B2 | c8 :: c6 c2 | d4 c4 | B8 | A2 A4 A2 | B2 AG A2 GF | G4 d4 | c8 | %28
w: mu- ne- re Chri-||stus:|il- le|me- rum|tar-|dè, il- le|me- * * * * *|* rum|tar-|
 A8 | d8 | B8 | f8 | d8 | g8 | c8 | f6 e2 | d6 c2 | B6 A2 | G6 F2 | G2 A2 B2 c2 | d6 c2 | B4 A4 | %42
w: dè,|tar-|dè,|tar-|dè,|tar-|dè,|tar- *||||||* dè,|
 z8 | f2 fe d2 c2 | f2 fe d2 c2 | fedc Bcde | fefF GABc | dcBA GF G2 | F8 :| %49
w: |dat ta- men il- le,|dat ta- men il- le|me- * * * * * * *|||rum.|
V:2
 z8 | c4 A4 | z2 A4 A2 | B2 c2 d4 | c4 c2 c2 | d2 e2 f4 | e2 g4 e2 | g4 e4 | g6 g2 | a2 g2 f4 | %10
w: |Spon- se,|spon- se|vo- ca Chri-|stum, spon- se|vo- ca Chri-|stum, spon- se,|spon- se,|spon- se|vo- ca Chri-|
 e2 c2 g4 | z2 G2 c4 | z2 d2 B4 | z2 F2 c2 c2 | d2 e2 f2 g2 | a2 e2 f2 g2 | a4 z2 f2 | e4 e2 c2 | %18
w: stum, non est,|non est,|non est,|non est, non|est, non est, non|est, non est, non|est, non|est si- ne|
 d3 d c2 f2- | feed/c/ d4 | c8 :: z8 | z8 | z8 | c6 c2 | d4 c4 | B8 | A8 | c8 | G8 | d8 | B8 | f8 | %33
w: mu- ne- re Chri-||stus:||||il- le|me- rum|tar-|dè,|tar-|dè,|tar-|dè,|tar-|
 c8 | g8 | d8 | f6 e2 | d6 c2 | B6 A2 | G3 F G2 A2 | B2 GA B2 A2 | G4 F4 | f2 fe d2 c2 | z8 | %44
w: dè,|tar-|dè,|tar- *|||||dè, dat|ta- men _ il- le,||
 d2 dc B2 A2 | Bcde fedc | Bcdc BAGA | BAGF EDCE | F8 :| %49
w: dat ta- men il- le|_ _ _ _ _ _ _ _|||rum.|

